static/images/logo.svg

<?xml version="1.0" encoding="UTF-8"?>
<svg width="408px" height="392px" viewBox="0 0 408 392" version="1.1" xmlns="http://www.w3.org/2000/svg" xmlns:xlink="http://www.w3.org/1999/xlink">
    <!-- Generator: Sketch 52.5 (67469) - http://www.bohemiancoding.com/sketch -->
    <title>Mask</title>
    <desc>Created with Sketch.</desc>
    <defs>
        <filter x="-2.5%" y="-2.5%" width="104.9%" height="104.9%" filterUnits="objectBoundingBox" id="filter-1">
            <feOffset dx="0" dy="2" in="SourceAlpha" result="shadowOffsetOuter1"></feOffset>
            <feGaussianBlur stdDeviation="2" in="shadowOffsetOuter1" result="shadowBlurOuter1"></feGaussianBlur>
            <feColorMatrix values="0 0 0 0 0   0 0 0 0 0   0 0 0 0 0  0 0 0 0.5 0" type="matrix" in="shadowBlurOuter1" result="shadowMatrixOuter1"></feColorMatrix>
            <feMerge>
                <feMergeNode in="shadowMatrixOuter1"></feMergeNode>
                <feMergeNode in="SourceGraphic"></feMergeNode>
            </feMerge>
        </filter>
    </defs>
    <g id="Page-1" stroke="none" stroke-width="1" fill="none" fill-rule="evenodd">
        <g id="Artboard" transform="translate(-46.000000, -108.000000)" fill="#77B255">
            <g id="Oval" filter="url(#filter-1)" transform="translate(6.000000, 6.000000)">
                <path d="M300.57882,259.082232 C288.325407,267.224749 277.396994,276.737565 267.963451,286.510851 C266.525204,238.437156 254.973928,176.26411 191.272035,145.823099 C178.667554,77.2515504 31.6832234,112.086576 44.831294,118.745548 C71.0368369,131.995541 84.9776422,165.720739 101.840241,183.46667 C131.884885,215.085458 165.292988,217.033321 181.917766,192.27735 C221.192106,217.803406 223.774156,266.216844 222.57373,317.971093 C222.437832,323.690107 222.31326,329.012754 222.31326,333.848435 L222.31326,492.395367 C222.31326,504.897925 267.612383,504.897925 267.612383,492.395367 L267.612383,362.273635 C273.750414,351.469794 291.643568,322.580278 317.781162,302.320245 C335.742265,318.095665 364.688405,313.056138 390.973221,285.389698 C407.83582,267.643766 416.940944,233.929894 443.146487,220.668575 C456.974044,213.669861 298.177967,175.437401 300.57882,259.082232 Z" id="Mask"></path>
            </g>
        </g>
    </g>
</svg>

<svg height="392" width="408" xmlns="http://www.w3.org/2000/svg" xmlns:xlink="http://www.w3.org/1999/xlink"><filter id="a" height="104.9%" width="104.9%" x="-2.5%" y="-2.5%"><feOffset dy="2" in="SourceAlpha" result="shadowOffsetOuter1"/><feGaussianBlur in="shadowOffsetOuter1" result="shadowBlurOuter1" stdDeviation="2"/><feColorMatrix in="shadowBlurOuter1" result="shadowMatrixOuter1" values="0 0 0 0 0 0 0 0 0 0 0 0 0 0 0 0 0 0 0.5 0"/><feMerge><feMergeNode in="shadowMatrixOuter1"/><feMergeNode in="SourceGraphic"/></feMerge></filter><path d="m300.579 259.082c-12.254 8.143-23.182 17.656-32.616 27.429-1.438-48.074-12.99-110.247-76.691-140.688-12.604-68.571-159.589-33.736-146.44-27.077 26.205 13.25 40.146 46.975 57.008 64.72 30.045 31.62 63.453 33.567 80.078 8.811 39.274 25.526 41.856 73.94 40.656 125.694-.136 5.72-.26 11.042-.26 15.877v158.547c0 12.503 45.298 12.503 45.298 0v-130.121c6.138-10.804 24.032-39.694 50.17-59.954 17.96 15.776 46.906 10.736 73.191-16.93 16.863-17.746 25.968-51.46 52.173-64.721 13.828-7-144.968-45.232-142.567 38.413z" fill="#77b255" fill-rule="evenodd" filter="url(#a)" transform="translate(-40 -102)"/></svg>
